build/flags/CNA.svg

<svg xmlns="http://www.w3.org/2000/svg" fill="none" viewBox="0 0 28 28" focusable="false"><defs><filter id="CNA_svg__a"><feColorMatrix values="0 0 0 0 1 0 0 0 0 1 0 0 0 0 1 0 0 0 1 0"/></filter></defs><mask id="CNA_svg__b" width="28" height="20" x="0" y="4" maskUnits="userSpaceOnUse"><g filter="url(#CNA_svg__a)"><rect width="28" height="20" y="4" fill="#FFF" rx="3"/><rect width="28" height="20" y="4" stroke="#969696" stroke-opacity="0" stroke-width="0" rx="3"/></g></mask><path fill="none" d="M0 0H28V28H0z"/><rect width="28" height="20" y="4" fill="#FFF" rx="3"/><rect width="28" height="20" y="4" rx="3"/><g mask="url(#CNA_svg__b)"><path fill="#19BFBF" d="M0 4H28V24H0z"/><path d="M0 4H28V24H0z"/><path fill="#FFF" fill-rule="evenodd" d="M13.3333 18.6667L12.7588 17.5177C12.7023 17.4047 12.5869 17.3334 12.4607 17.3334L12.1381 17.3334C12.0497 17.3334 11.9649 17.2983 11.9024 17.2358L9.43096 14.7644C9.36845 14.7019 9.33333 14.6171 9.33333 14.5287L9.33333 13.4715C9.33333 13.3831 9.29821 13.2983 9.2357 13.2358L8.06529 12.0654C8.02257 12.0226 7.99226 11.9691 7.97761 11.9105L7.37771 9.51093C7.35007 9.40037 7.26786 9.31159 7.15974 9.27555L5.35581 8.67424C5.34084 8.66925 5.32625 8.66321 5.31215 8.65615L4.18426 8.09221C4.07133 8.03575 4 7.92033 4 7.79407L4 7.00008C4 6.81599 4.14924 6.66675 4.33333 6.66675L5.19526 6.66675C5.28367 6.66675 5.36845 6.70187 5.43096 6.76438L5.90237 7.23578C5.96488 7.2983 6.04967 7.33341 6.13807 7.33341L7.19526 7.33341C7.28367 7.33341 7.36845 7.2983 7.43096 7.23578L7.90237 6.76438C7.96488 6.70187 8.04967 6.66675 8.13807 6.66675L10.588 6.66675C10.6397 6.66675 10.6908 6.6788 10.737 6.70194L11.9296 7.29822C11.9759 7.32137 12.0269 7.33341 12.0787 7.33341L13.2546 7.33341C13.3064 7.33341 13.3574 7.32137 13.4037 7.29822L14.5963 6.70194C14.6426 6.6788 14.6936 6.66675 14.7454 6.66675L17 6.66675C17.1841 6.66675 17.3333 6.81599 17.3333 7.00008L17.3333 7.66675C17.3333 7.85084 17.1841 8.00008 17 8.00008L16.3333 8.00008C16.1492 8.00008 16 8.14932 16 8.33342L16 9.79407C16 9.92033 16.0713 10.0357 16.1843 10.0922L16.8509 10.4255C17.0726 10.5364 17.3333 10.3752 17.3333 10.1274L17.3333 9.00008C17.3333 8.81599 17.4826 8.66675 17.6667 8.66675L19 8.66675C19.1841 8.66675 19.3333 8.81599 19.3333 9.00008L19.3333 9.00008C19.3333 9.18418 19.4826 9.33342 19.6667 9.33342L21 9.33342C21.1841 9.33342 21.3333 9.48265 21.3333 9.66675L21.3333 10.6127C21.3333 10.6485 21.3276 10.6841 21.3162 10.7181L20.6915 12.5921C20.6752 12.6412 20.6476 12.6858 20.611 12.7224L18.7049 14.6285C18.6796 14.6538 18.6585 14.6831 18.6425 14.7151L18.0352 15.9297C18.012 15.976 18 16.027 18 16.0788L18 17.0001C18 17.1842 17.8508 17.3334 17.6667 17.3334L17.5393 17.3334C17.4131 17.3334 17.2977 17.2621 17.2412 17.1492L16.7588 16.1843C16.7023 16.0714 16.5869 16.0001 16.4607 16.0001L14.8727 16.0001C14.7464 16.0001 14.631 16.0714 14.5745 16.1843L14.0745 17.1843C14.0276 17.2782 14.0276 17.3886 14.0745 17.4825L14.5745 18.4825C14.631 18.5954 14.7464 18.6667 14.8727 18.6667L15.8619 18.6667C15.9503 18.6667 16.0351 18.7019 16.0976 18.7644L17.2357 19.9025C17.2982 19.965 17.3333 20.0497 17.3333 20.1382L17.3333 21.0001C17.3333 21.1842 17.1841 21.3334 17 21.3334L16.206 21.3334C16.0798 21.3334 15.9643 21.2621 15.9079 21.1492L15.4255 20.1843C15.369 20.0714 15.2536 20.0001 15.1273 20.0001L14.206 20.0001C14.0798 20.0001 13.9643 19.9287 13.9079 19.8158L13.3333 18.6667Z"/><path d="M12.7588 17.5177C12.7023 17.4047 12.5869 17.3334 12.4607 17.3334L12.1381 17.3334C12.0497 17.3334 11.9649 17.2983 11.9024 17.2358L9.43096 14.7644C9.36845 14.7019 9.33333 14.6171 9.33333 14.5287L9.33333 13.4715C9.33333 13.3831 9.29821 13.2983 9.2357 13.2358L8.06529 12.0654C8.02257 12.0226 7.99226 11.9691 7.97761 11.9105L7.37753 9.51022C7.34999 9.40004 7.26825 9.31147 7.16064 9.2752L5.35581 8.66675C5.34084 8.66176 5.32625 8.66321 5.31215 8.65615L4.18426 8.09221C4.07133 8.03575 4 7.92033 4 7.79407L4 7.00008C4 6.81599 4.14924 6.66675 4.33333 6.66675L5.19526 6.66675C5.28367 6.66675 5.36845 6.70187 5.43096 6.76438L5.90237 7.23578C5.96488 7.2983 6.04967 7.33341 6.13807 7.33341L7.19526 7.33341C7.28367 7.33341 7.36845 7.2983 7.43096 7.23578L7.90237 6.76438C7.96488 6.70187 8.04967 6.66675 8.13807 6.66675L10.588 6.66675C10.6397 6.66675 10.6908 6.6788 10.737 6.70194L11.9296 7.29822C11.9759 7.32137 12.0269 7.33341 12.0787 7.33341L13.2546 7.33341C13.3064 7.33341 13.3574 7.32137 13.4037 7.29822L14.5963 6.70194C14.6426 6.6788 14.6936 6.66675 14.7454 6.66675L17 6.66675C17.1841 6.66675 17.3333 6.81599 17.3333 7.00008L17.3333 7.66675C17.3333 7.85084 17.1841 8.00008 17 8.00008L16.3333 8.00008C16.1492 8.00008 16 8.14932 16 8.33342L16 9.79407C16 9.92033 16.0713 10.0357 16.1843 10.0922L16.8509 10.4255C17.0726 10.5364 17.3333 10.3752 17.3333 10.1274L17.3333 9.00008C17.3333 8.81599 17.4826 8.66675 17.6667 8.66675L19 8.66675C19.1841 8.66675 19.3333 8.81599 19.3333 9.00008C19.3333 9.18418 19.4826 9.33342 19.6667 9.33342L21 9.33342C21.1841 9.33342 21.3333 9.48265 21.3333 9.66675L21.3333 10.6127C21.3333 10.6485 21.3276 10.6841 21.3162 10.7181L20.6915 12.5921C20.6752 12.6412 20.6476 12.6858 20.611 12.7224L18.7049 14.6285C18.6796 14.6538 18.6585 14.6831 18.6425 14.7151L18.0352 15.9297C18.012 15.976 18 16.027 18 16.0788L18 17.0001C18 17.1842 17.8508 17.3334 17.6667 17.3334L17.5393 17.3334C17.4131 17.3334 17.2977 17.2621 17.2412 17.1492L16.7588 16.1843C16.7023 16.0714 16.5869 16.0001 16.4607 16.0001L14.8727 16.0001C14.7464 16.0001 14.631 16.0714 14.5745 16.1843L14.0745 17.1843C14.0276 17.2782 14.0276 17.3886 14.0745 17.4825L14.5745 18.4825C14.631 18.5954 14.7464 18.6667 14.8727 18.6667L15.8619 18.6667C15.9503 18.6667 16.0351 18.7019 16.0976 18.7644L17.2357 19.9025C17.2982 19.965 17.3333 20.0497 17.3333 20.1382L17.3333 21.0001C17.3333 21.1842 17.1841 21.3334 17 21.3334L16.206 21.3334C16.0798 21.3334 15.9643 21.2621 15.9079 21.1492L15.4255 20.1843C15.369 20.0714 15.2536 20.0001 15.1273 20.0001L14.206 20.0001C14.0798 20.0001 13.9643 19.9287 13.9079 19.8158L13.3333 18.6667L12.7588 17.5177Z"/></g></svg>

<svg xmlns="http://www.w3.org/2000/svg" fill="none" viewBox="0 0 28 28" focusable="false"><path fill="none" d="M0 0h28v28H0z"/><rect width="28" height="20" y="4" fill="#FFF" rx="3"/><rect width="28" height="20" y="4" rx="3"/><mask id="CNA_svg__a" width="28" height="20" x="0" y="4" mask-type="alpha" maskUnits="userSpaceOnUse"><rect width="28" height="20" y="4" fill="#FFF" rx="3"/><rect width="28" height="20" y="4" stroke="#979797" stroke-opacity="0" stroke-width="0" rx="3"/></mask><g mask="url(#CNA_svg__a)"><path fill="#19BFBF" d="M0 4h28v20H0z"/><path d="M0 4h28v20H0z"/></g><g mask="url(#CNA_svg__a)"><path fill="#FFF" fill-rule="evenodd" d="m13.33 18.66-.58-1.15a.32.32 0 0 0-.29-.18h-.33c-.09 0-.17-.04-.23-.1l-2.47-2.47a.31.31 0 0 1-.1-.24v-1.05a.35.35 0 0 0-.1-.24l-1.17-1.17a.5.5 0 0 1-.09-.15l-.6-2.4a.33.33 0 0 0-.22-.24l-1.8-.6c-.01-.01-.03-.01-.04-.02l-1.13-.56a.34.34 0 0 1-.18-.3V7c0-.19.14-.34.33-.34h.86c.09 0 .17.04.24.1l.47.47c.06.06.14.1.23.1h1.06c.09 0 .17-.04.24-.1l.47-.47c.06-.06.14-.1.23-.1h2.45c.05 0 .11.01.15.04l1.19.59c.05.03.1.04.15.04h1.18c.05 0 .1-.01.15-.04l1.19-.59c.05-.03.1-.04.15-.04H17c.18 0 .33.15.33.34v.66c0 .19-.15.34-.33.34h-.67a.32.32 0 0 0-.33.33v1.46c0 .13.07.24.18.3l.67.33c.22.11.48-.05.48-.3V9c0-.19.15-.34.33-.34H19c.18 0 .33.15.33.34 0 .18.15.33.33.33H21c.18 0 .33.15.33.33v.95c0 .03-.01.07-.02.1l-.62 1.88c-.02.05-.05.09-.08.13l-1.91 1.9q-.045.045-.06.09l-.61 1.21q-.03.075-.03.15V17c0 .18-.15.33-.34.33h-.13c-.12 0-.24-.07-.29-.19l-.49-.96a.32.32 0 0 0-.29-.18h-1.59c-.13 0-.24.07-.3.18l-.5 1c-.05.09-.05.2 0 .3l.5 1c.06.11.17.18.3.18h.99c.09 0 .17.04.23.1l1.14 1.14c.06.06.1.14.1.23V21c0 .18-.15.33-.33.33h-.8c-.13 0-.24-.07-.3-.19l-.48-.96a.34.34 0 0 0-.3-.18h-.92c-.13 0-.24-.08-.3-.19z"/><path d="M12.75 17.51a.32.32 0 0 0-.29-.18h-.33c-.09 0-.17-.04-.23-.1l-2.47-2.47a.31.31 0 0 1-.1-.24v-1.05a.35.35 0 0 0-.1-.24l-1.17-1.17a.5.5 0 0 1-.09-.15l-.6-2.4a.33.33 0 0 0-.22-.24l-1.8-.6c-.01 0-.03-.02-.04-.02l-1.13-.56a.34.34 0 0 1-.18-.3V7c0-.19.14-.34.33-.34h.86c.09 0 .17.04.24.1l.47.47c.06.06.14.1.23.1h1.06c.09 0 .17-.04.24-.1l.47-.47c.06-.06.14-.1.23-.1h2.45c.05 0 .11.01.15.04l1.19.59c.05.03.1.04.15.04h1.18c.05 0 .1-.01.15-.04l1.19-.59c.05-.03.1-.04.15-.04H17c.18 0 .33.15.33.34v.66c0 .19-.15.34-.33.34h-.67a.32.32 0 0 0-.33.33v1.46c0 .13.07.24.18.3l.67.33c.22.11.48-.05.48-.3V9c0-.19.15-.34.33-.34H19c.18 0 .33.15.33.34 0 .18.15.33.33.33H21c.18 0 .33.15.33.33v.95c0 .03-.01.07-.02.1l-.62 1.88c-.02.05-.05.09-.08.13l-1.91 1.9q-.045.045-.06.09l-.61 1.21q-.03.075-.03.15V17c0 .18-.15.33-.34.33h-.13c-.12 0-.24-.07-.29-.19l-.49-.96a.32.32 0 0 0-.29-.18h-1.59c-.13 0-.24.07-.3.18l-.5 1c-.05.09-.05.2 0 .3l.5 1c.06.11.17.18.3.18h.99c.09 0 .17.04.23.1l1.14 1.14c.06.06.1.14.1.23V21c0 .18-.15.33-.33.33h-.8c-.13 0-.24-.07-.3-.19l-.48-.96a.34.34 0 0 0-.3-.18h-.92c-.13 0-.24-.08-.3-.19l-.57-1.15z"/></g></svg>
